X: 1
T: V\"ava Vadmal fr\aan V\"ackelsang
T: ur Sven Donats notbok
N: Polskan p\aaminner n\"armast om en l\aangdans.
S: beatnikboy2001 <lyle:soapinaction.com> (scand list) 2007-11
Z: 2007 John Chambers <jc@trillian.mit.edu>
M: 3/4
L: 1/8
K: Dm
|: {A}c2 A2 ^cd | ef de ^cA | =c2 A2 ^cd | ef d4 :| {e}f2 df df | e2 ce ce |
| f2 df df | e^c A4 | =c2 A2 ^cd | ef de ^cA | =c2 A2 ^cd | ef d4 :|
